; SPDX-FileCopyrightText: 2023 Christian Willberg <christian.willberg@dlr.de>, Jan-Timo Hesse <jan-timo.hesse@dlr.de>
;
; SPDX-License-Identifier: BSD-3-Clause
; generated by PrusaSlicer 2.4.2+win64 on 2023-03-07 at 16:07:33 UTC

;

; external perimeters extrusion width = 0.45mm
; perimeters extrusion width = 0.45mm
; infill extrusion width = 0.45mm
; solid infill extrusion width = 0.45mm
; top infill extrusion width = 0.40mm
; first layer extrusion width = 0.42mm

M73 P0 R55
M73 Q0 S55
M107
;TYPE:Custom
M862.3 P "MK3SMMU2S" ; printer model check
M862.1 P0.4 ; nozzle diameter check
M115 U3.10.0 ; tell printer latest fw version
G90 ; use absolute coordinates
M83 ; extruder relative mode
M104 S230 ; set extruder temp
M140 S85 ; set bed temp
Tx
M190 S85 ; wait for bed temp
M109 S230 ; wait for extruder temp
G28 W ; home all without mesh bed level
G80 ; mesh bed leveling

;go outside print area
G1 Y-3.0 F1000.0
G1 Z0.4 F1000.0
; select extruder
Tc
; purge line
G1 X55.0 F2000.0
G1 Z0.3 F1000.0
G92 E0.0
G1 X240.0 E25.0 F2200.0
G1 Y-2.0 F1000.0
G1 X55.0 E25 F1400.0
G1 Z0.20 F1000.0
G1 X5.0 E4.0 F1000.0

M221 S95
G92 E0.0

; Don't change E values below. Excessive value can damage the printer.
M907 E430 ; set extruder motor current
G21 ; set units to millimeters
G90 ; use absolute coordinates
M83 ; use relative distances for extrusion
M900 K0.08 ; Filament gcode LA 1.5
M900 K45 ; Filament gcode LA 1.0
M107
;LAYER_CHANGE
;Z:0.2
;HEIGHT:0.2
;BEFORE_LAYER_CHANGE
G92 E0.0
;0.2


G1 E-1 F2100
G1 Z.2 F10800
;AFTER_LAYER_CHANGE
;0.2
G1 Z.4
G1 X24.06 Y92.817
G1 Z.2
G1 E1 F2100
M204 S1000
;TYPE:Skirt/Brim
;WIDTH:0.42
G1 F1200
G1 X25 Y92.623 E.03008
G1 X225 Y92.623 E6.27086
G1 X226.307 Y93.015 E.04278
G1 X227.183 Y94.06 E.04278
G1 X227.377 Y95 E.03008
G1 X227.377 Y115 E.62709
G1 X226.985 Y116.307 E.04278
G1 X225.94 Y117.183 E.04278
G1 X225 Y117.377 E.03008
G1 X25 Y117.377 E6.27086
G1 X23.693 Y116.985 E.04278
M73 P1 R55
M73 Q1 S55
G1 X22.817 Y115.94 E.04278
G1 X22.623 Y115 E.03008
G1 X22.623 Y95 E.62709
G1 X23.015 Y93.693 E.04278
G1 X24.014 Y92.855 E.0409
; printing object Zugstab ISO527 Typ1B_L200.stl id:0 copy 0
;WIPE_START
G1 F8640
G1 X25 Y92.623 E-.23384
G1 X28.102 Y92.623 E-.71616
;WIPE_END
G1 E-.05 F2100
G1 Z.4 F10800
G1 X25.787 Y95.787
G1 Z.2
G1 E1 F2100
;TYPE:Perimeter
G1 F1200
G1 X70.864 Y95.787 E1.41335
G1 X78.532 Y98.522 E.25526
M73 P1 R54
G1 X86.688 Y100.221 E.26122
G1 X94.973 Y100.787 E.26037
G1 X155.027 Y100.787 E1.88294
G1 X163.312 Y100.221 E.26037
G1 X171.468 Y98.522 E.26122
G1 X179.136 Y95.787 E.25526
G1 X224.213 Y95.787 E1.41335
G1 X224.213 Y114.213 E.57773
G1 X179.136 Y114.213 E1.41335
M73 Q1 S54
G1 X171.468 Y111.478 E.25526
G1 X163.312 Y109.779 E.26122
G1 X155.027 Y109.213 E.26037
G1 X94.973 Y109.213 E1.88294
G1 X86.688 Y109.779 E.26037
G1 X78.532 Y111.478 E.26122
G1 X70.864 Y114.213 E.25526
G1 X25.787 Y114.213 E1.41335
G1 X25.787 Y95.847 E.57585
G1 X25.41 Y95.41 F10800
;TYPE:External perimeter
G1 F1200
G1 X70.929 Y95.41 E1.42722
G1 X78.634 Y98.158 E.25649
G1 X86.74 Y99.846 E.2596
M73 Q2 S54
G1 X94.986 Y100.41 E.25916
M73 P2 R54
G1 X155.014 Y100.41 E1.88214
G1 X163.26 Y99.846 E.25916
G1 X171.366 Y98.158 E.2596
G1 X179.071 Y95.41 E.25649
G1 X224.59 Y95.41 E1.42722
G1 X224.59 Y114.59 E.60138
G1 X179.071 Y114.59 E1.42722
G1 X171.366 Y111.842 E.25649
G1 X163.26 Y110.154 E.2596
G1 X155.014 Y109.59 E.25916
G1 X94.986 Y109.59 E1.88214
G1 X86.74 Y110.154 E.25916
G1 X78.634 Y111.842 E.2596
G1 X70.929 Y114.59 E.25649
G1 X25.41 Y114.59 E1.42722
G1 X25.41 Y95.47 E.59949
G1 X25.806 Y95.463 F10800
;WIPE_START
G1 F8640
G1 X29.524 Y95.465 E-.95
;WIPE_END
G1 E-.05 F2100
G1 Z.4 F10800
G1 X223.336 Y95.9
G1 Z.2
G1 E1 F2100
;TYPE:Solid infill
;WIDTH:0.420872
G1 F1200
G1 X223.93 Y96.495 E.02642
G1 X223.93 Y97.029 E.0168
G1 X222.971 Y96.07 E.04263
G1 X222.436 Y96.07 E.0168
G1 X223.93 Y97.564 E.06639
G1 X223.93 Y98.098 E.0168
G1 X221.902 Y96.07 E.09014
G1 X221.367 Y96.07 E.0168
G1 X223.93 Y98.633 E.1139
G1 X223.93 Y99.167 E.0168
G1 X220.833 Y96.07 E.13766
G1 X220.298 Y96.07 E.0168
G1 X223.93 Y99.702 E.16141
G1 X223.93 Y100.236 E.0168
G1 X219.764 Y96.07 E.18517
G1 X219.229 Y96.07 E.0168
G1 X223.93 Y100.771 E.20892
G1 X223.93 Y101.305 E.0168
G1 X218.695 Y96.07 E.23268
G1 X218.16 Y96.07 E.0168
G1 X223.93 Y101.84 E.25643
G1 X223.93 Y102.374 E.0168
G1 X217.626 Y96.07 E.28019
G1 X217.091 Y96.07 E.0168
G1 X223.93 Y102.909 E.30395
G1 X223.93 Y103.443 E.0168
G1 X216.557 Y96.07 E.3277
G1 X216.022 Y96.07 E.0168
G1 X223.93 Y103.978 E.35146
G1 X223.93 Y104.512 E.0168
G1 X215.488 Y96.07 E.37521
G1 X214.953 Y96.07 E.0168
G1 X223.93 Y105.047 E.39897
G1 X223.93 Y105.581 E.0168
G1 X214.419 Y96.07 E.42272
G1 X213.884 Y96.07 E.0168
G1 X223.93 Y106.116 E.44648
G1 X223.93 Y106.65 E.0168
G1 X213.35 Y96.07 E.47024
G1 X212.815 Y96.07 E.0168
G1 X223.93 Y107.185 E.49399
G1 X223.93 Y107.719 E.0168
G1 X212.281 Y96.07 E.51775
G1 X211.746 Y96.07 E.0168
G1 X223.93 Y108.254 E.5415
G1 X223.93 Y108.788 E.0168
G1 X211.212 Y96.07 E.56526
G1 X210.677 Y96.07 E.0168
M73 Q3 S54
G1 X223.93 Y109.323 E.58901
G1 X223.93 Y109.857 E.0168
M73 P3 R54
G1 X210.143 Y96.07 E.61277
G1 X209.608 Y96.07 E.0168
G1 X223.93 Y110.392 E.63653
G1 X223.93 Y110.926 E.0168
G1 X209.074 Y96.07 E.66028
G1 X208.539 Y96.07 E.0168
M73 P3 R53
G1 X223.93 Y111.461 E.68404
G1 X223.93 Y111.995 E.0168
G1 X208.005 Y96.07 E.70779
G1 X207.47 Y96.07 E.0168
G1 X223.93 Y112.53 E.73155
G1 X223.93 Y113.064 E.0168
G1 X206.936 Y96.07 E.7553
G1 X206.401 Y96.07 E.0168
G1 X223.93 Y113.599 E.77906
G1 X223.93 Y113.93 E.01041
G1 X223.727 Y113.93 E.00638
G1 X205.867 Y96.07 E.79379
G1 X205.332 Y96.07 E.0168
G1 X223.192 Y113.93 E.79379
G1 X222.658 Y113.93 E.0168
M73 Q3 S53
G1 X204.798 Y96.07 E.79379
G1 X204.263 Y96.07 E.0168
G1 X222.123 Y113.93 E.79379
G1 X221.589 Y113.93 E.0168
G1 X203.729 Y96.07 E.79379
G1 X203.194 Y96.07 E.0168
G1 X221.054 Y113.93 E.79379
G1 X220.52 Y113.93 E.0168
G1 X202.66 Y96.07 E.79379
G1 X202.125 Y96.07 E.0168
G1 X219.985 Y113.93 E.79379
G1 X219.451 Y113.93 E.0168
G1 X201.591 Y96.07 E.79379
G1 X201.056 Y96.07 E.0168
G1 X218.916 Y113.93 E.79379
G1 X218.382 Y113.93 E.0168
G1 X200.522 Y96.07 E.79379
G1 X199.987 Y96.07 E.0168
G1 X217.847 Y113.93 E.79379
G1 X217.313 Y113.93 E.0168
G1 X199.453 Y96.07 E.79379
G1 X198.918 Y96.07 E.0168
G1 X216.778 Y113.93 E.79379
G1 X216.244 Y113.93 E.0168
G1 X198.384 Y96.07 E.79379
G1 X197.849 Y96.07 E.0168
G1 X215.709 Y113.93 E.79379
G1 X215.175 Y113.93 E.0168
G1 X197.315 Y96.07 E.79379
G1 X196.78 Y96.07 E.0168
G1 X214.64 Y113.93 E.79379
G1 X214.106 Y113.93 E.0168
M73 Q4 S53
G1 X196.246 Y96.07 E.79379
G1 X195.711 Y96.07 E.0168
M73 P4 R53
G1 X213.571 Y113.93 E.79379
G1 X213.037 Y113.93 E.0168
G1 X195.177 Y96.07 E.79379
G1 X194.642 Y96.07 E.0168
G1 X212.502 Y113.93 E.79379
G1 X211.968 Y113.93 E.0168
G1 X194.108 Y96.07 E.79379
G1 X193.573 Y96.07 E.0168
G1 X211.433 Y113.93 E.79379
G1 X210.899 Y113.93 E.0168
G1 X193.039 Y96.07 E.79379
G1 X192.504 Y96.07 E.0168
G1 X210.364 Y113.93 E.79379
G1 X209.83 Y113.93 E.0168
G1 X191.97 Y96.07 E.79379
G1 X191.435 Y96.07 E.0168
G1 X209.295 Y113.93 E.79379
G1 X208.761 Y113.93 E.0168
G1 X190.901 Y96.07 E.79379
G1 X190.366 Y96.07 E.0168
G1 X208.226 Y113.93 E.79379
G1 X207.692 Y113.93 E.0168
G1 X189.832 Y96.07 E.79379
G1 X189.297 Y96.07 E.0168
G1 X207.157 Y113.93 E.79379
G1 X206.623 Y113.93 E.0168
G1 X188.763 Y96.07 E.79379
G1 X188.228 Y96.07 E.0168
G1 X206.088 Y113.93 E.79379
G1 X205.554 Y113.93 E.0168
G1 X187.694 Y96.07 E.79379
G1 X187.159 Y96.07 E.0168
G1 X205.019 Y113.93 E.79379
G1 X204.485 Y113.93 E.0168
G1 X186.625 Y96.07 E.79379
G1 X186.09 Y96.07 E.0168
G1 X203.95 Y113.93 E.79379
G1 X203.416 Y113.93 E.0168
G1 X185.556 Y96.07 E.79379
G1 X185.021 Y96.07 E.0168
G1 X202.881 Y113.93 E.79379
G1 X202.347 Y113.93 E.0168
G1 X184.487 Y96.07 E.79379
G1 X183.952 Y96.07 E.0168
G1 X201.812 Y113.93 E.79379
G1 X201.278 Y113.93 E.0168
M73 P4 R52
G1 X183.418 Y96.07 E.79379
G1 X182.883 Y96.07 E.0168
G1 X200.743 Y113.93 E.79379
G1 X200.209 Y113.93 E.0168
M73 Q5 S53
G1 X182.349 Y96.07 E.79379
G1 X181.814 Y96.07 E.0168
M73 P5 R52
G1 X199.674 Y113.93 E.79379
G1 X199.14 Y113.93 E.0168
G1 X181.279 Y96.07 E.79379
G1 X180.745 Y96.07 E.0168
G1 X198.605 Y113.93 E.79379
G1 X198.071 Y113.93 E.0168
G1 X180.21 Y96.07 E.79379
G1 X179.676 Y96.07 E.0168
M73 Q5 S52
G1 X197.536 Y113.93 E.79379
G1 X197.002 Y113.93 E.0168
G1 X179.153 Y96.081 E.79328
G1 X178.759 Y96.222 E.01315
G1 X196.467 Y113.93 E.78703
G1 X195.933 Y113.93 E.0168
G1 X178.365 Y96.362 E.78079
G1 X177.971 Y96.503 E.01315
G1 X195.398 Y113.93 E.77454
G1 X194.864 Y113.93 E.0168
G1 X177.577 Y96.643 E.7683
G1 X177.183 Y96.784 E.01315
G1 X194.329 Y113.93 E.76205
G1 X193.795 Y113.93 E.0168
G1 X176.789 Y96.924 E.75581
G1 X176.395 Y97.065 E.01315
G1 X193.26 Y113.93 E.74956
G1 X192.726 Y113.93 E.0168
G1 X176.001 Y97.205 E.74332
G1 X175.607 Y97.346 E.01315
G1 X192.191 Y113.93 E.73707
G1 X191.657 Y113.93 E.0168
G1 X175.213 Y97.486 E.73083
G1 X174.819 Y97.627 E.01315
G1 X191.122 Y113.93 E.72458
G1 X190.588 Y113.93 E.0168
G1 X174.425 Y97.767 E.71834
G1 X174.031 Y97.908 E.01315
G1 X190.053 Y113.93 E.7121
G1 X189.519 Y113.93 E.0168
G1 X173.637 Y98.048 E.70585
G1 X173.243 Y98.189 E.01315
G1 X188.984 Y113.93 E.69961
G1 X188.45 Y113.93 E.0168
G1 X172.849 Y98.329 E.69336
G1 X172.455 Y98.47 E.01315
G1 X187.915 Y113.93 E.68712
G1 X187.381 Y113.93 E.0168
G1 X172.061 Y98.61 E.68087
G1 X171.667 Y98.751 E.01315
G1 X186.846 Y113.93 E.67463
G1 X186.312 Y113.93 E.0168
G1 X171.24 Y98.858 E.66986
G1 X170.797 Y98.95 E.0142
G1 X185.777 Y113.93 E.66577
G1 X185.243 Y113.93 E.0168
M73 P6 R52
M73 Q6 S52
G1 X170.355 Y99.042 E.66167
G1 X169.913 Y99.135 E.0142
G1 X184.708 Y113.93 E.65758
G1 X184.174 Y113.93 E.0168
G1 X169.47 Y99.227 E.65348
G1 X169.028 Y99.319 E.0142
G1 X183.639 Y113.93 E.64939
G1 X183.105 Y113.93 E.0168
G1 X168.586 Y99.411 E.64529
G1 X168.143 Y99.503 E.0142
G1 X182.57 Y113.93 E.64119
G1 X182.036 Y113.93 E.0168
G1 X167.701 Y99.595 E.6371
G1 X167.258 Y99.688 E.0142
G1 X181.501 Y113.93 E.633
G1 X180.967 Y113.93 E.0168
G1 X166.816 Y99.78 E.62891
G1 X166.374 Y99.872 E.0142
G1 X180.432 Y113.93 E.62481
G1 X179.898 Y113.93 E.0168
G1 X165.931 Y99.964 E.62071
G1 X165.489 Y100.056 E.0142
G1 X179.363 Y113.93 E.61662
G1 X179.185 Y113.93 E.00559
G1 X178.631 Y113.733 E.01849
G1 X165.047 Y100.148 E.60374
G1 X164.604 Y100.24 E.0142
G1 X177.8 Y113.436 E.58648
G1 X176.969 Y113.14 E.02772
G1 X164.162 Y100.333 E.56921
G1 X163.72 Y100.425 E.0142
G1 X176.139 Y112.844 E.55195
G1 X175.308 Y112.547 E.02772
G1 X163.268 Y100.507 E.53511
G1 X162.767 Y100.542 E.01576
G1 X174.477 Y112.251 E.52043
G1 X173.646 Y111.955 E.02772
G1 X162.267 Y100.576 E.50574
G1 X161.767 Y100.61 E.01576
G1 X172.816 Y111.659 E.49105
G1 X171.985 Y111.362 E.02772
G1 X161.267 Y100.644 E.47637
G1 X160.766 Y100.678 E.01576
G1 X171.227 Y111.139 E.46493
G1 X170.552 Y110.999 E.02167
G1 X160.266 Y100.713 E.45716
G1 X159.766 Y100.747 E.01576
G1 X169.877 Y110.858 E.44939
G1 X169.202 Y110.717 E.02167
M73 P6 R51
G1 X159.265 Y100.781 E.44162
G1 X158.765 Y100.815 E.01576
G1 X168.527 Y110.577 E.43385
G1 X167.851 Y110.436 E.02167
G1 X158.265 Y100.849 E.42607
G1 X157.764 Y100.883 E.01576
G1 X167.176 Y110.295 E.4183
G1 X166.501 Y110.155 E.02167
G1 X157.264 Y100.918 E.41053
G1 X156.764 Y100.952 E.01576
G1 X165.826 Y110.014 E.40276
G1 X165.151 Y109.873 E.02167
G1 X156.263 Y100.986 E.39499
G1 X155.763 Y101.02 E.01576
G1 X164.476 Y109.733 E.38722
G1 X163.8 Y109.592 E.02167
G1 X155.263 Y101.054 E.37945
G1 X154.744 Y101.07 E.01632
G1 X163.159 Y109.485 E.37401
G1 X162.585 Y109.446 E.01807
G1 X154.209 Y101.07 E.37227
G1 X153.675 Y101.07 E.0168
G1 X162.012 Y109.407 E.37053
G1 X161.438 Y109.368 E.01807
G1 X153.14 Y101.07 E.36879
G1 X152.606 Y101.07 E.0168
M73 Q6 S51
G1 X160.864 Y109.328 E.36704
G1 X160.29 Y109.289 E.01807
G1 X152.071 Y101.07 E.3653
G1 X151.537 Y101.07 E.0168
M73 P7 R51
M73 Q7 S51
G1 X159.717 Y109.25 E.36356
G1 X159.143 Y109.211 E.01807
G1 X151.002 Y101.07 E.36182
G1 X150.468 Y101.07 E.0168
G1 X158.569 Y109.172 E.36007
G1 X157.996 Y109.132 E.01807
G1 X149.933 Y101.07 E.35833
G1 X149.399 Y101.07 E.0168
G1 X157.422 Y109.093 E.35659
G1 X156.848 Y109.054 E.01807
G1 X148.864 Y101.07 E.35485
G1 X148.33 Y101.07 E.0168
G1 X156.275 Y109.015 E.3531
G1 X155.701 Y108.976 E.01807
G1 X147.795 Y101.07 E.35136
G1 X147.261 Y101.07 E.0168
G1 X155.127 Y108.936 E.34962
G1 X154.586 Y108.93 E.01699
G1 X146.726 Y101.07 E.34934
G1 X146.192 Y101.07 E.0168
G1 X154.052 Y108.93 E.34934
G1 X153.517 Y108.93 E.0168
G1 X145.657 Y101.07 E.34934
G1 X145.123 Y101.07 E.0168
G1 X152.983 Y108.93 E.34934
G1 X152.448 Y108.93 E.0168
G1 X144.588 Y101.07 E.34934
G1 X144.054 Y101.07 E.0168
G1 X151.914 Y108.93 E.34934
G1 X151.379 Y108.93 E.0168
G1 X143.519 Y101.07 E.34934
G1 X142.985 Y101.07 E.0168
G1 X150.845 Y108.93 E.34934
G1 X150.31 Y108.93 E.0168
G1 X142.45 Y101.07 E.34934
G1 X141.916 Y101.07 E.0168
G1 X149.776 Y108.93 E.34934
G1 X149.241 Y108.93 E.0168
G1 X141.381 Y101.07 E.34934
G1 X140.847 Y101.07 E.0168
G1 X148.707 Y108.93 E.34934
G1 X148.172 Y108.93 E.0168
G1 X140.312 Y101.07 E.34934
G1 X139.778 Y101.07 E.0168
G1 X147.638 Y108.93 E.34934
G1 X147.103 Y108.93 E.0168
G1 X139.243 Y101.07 E.34934
G1 X138.709 Y101.07 E.0168
G1 X146.569 Y108.93 E.34934
G1 X146.034 Y108.93 E.0168
G1 X138.174 Y101.07 E.34934
G1 X137.64 Y101.07 E.0168
G1 X145.5 Y108.93 E.34934
G1 X144.965 Y108.93 E.0168
G1 X137.105 Y101.07 E.34934
G1 X136.571 Y101.07 E.0168
G1 X144.431 Y108.93 E.34934
G1 X143.896 Y108.93 E.0168
G1 X136.036 Y101.07 E.34934
G1 X135.502 Y101.07 E.0168
G1 X143.362 Y108.93 E.34934
G1 X142.827 Y108.93 E.0168
G1 X134.967 Y101.07 E.34934
G1 X134.433 Y101.07 E.0168
G1 X142.293 Y108.93 E.34934
G1 X141.758 Y108.93 E.0168
G1 X133.898 Y101.07 E.34934
G1 X133.364 Y101.07 E.0168
G1 X141.224 Y108.93 E.34934
G1 X140.689 Y108.93 E.0168
G1 X132.829 Y101.07 E.34934
G1 X132.295 Y101.07 E.0168
G1 X140.155 Y108.93 E.34934
G1 X139.62 Y108.93 E.0168
G1 X131.76 Y101.07 E.34934
G1 X131.225 Y101.07 E.0168
G1 X139.086 Y108.93 E.34934
G1 X138.551 Y108.93 E.0168
G1 X130.691 Y101.07 E.34934
G1 X130.156 Y101.07 E.0168
G1 X138.017 Y108.93 E.34934
G1 X137.482 Y108.93 E.0168
G1 X129.622 Y101.07 E.34934
G1 X129.087 Y101.07 E.0168
G1 X136.948 Y108.93 E.34934
G1 X136.413 Y108.93 E.0168
G1 X128.553 Y101.07 E.34934
G1 X128.018 Y101.07 E.0168
G1 X135.879 Y108.93 E.34934
G1 X135.344 Y108.93 E.0168
G1 X127.484 Y101.07 E.34934
G1 X126.949 Y101.07 E.0168
G1 X134.81 Y108.93 E.34934
G1 X134.275 Y108.93 E.0168
G1 X126.415 Y101.07 E.34934
G1 X125.88 Y101.07 E.0168
G1 X133.741 Y108.93 E.34934
G1 X133.206 Y108.93 E.0168
G1 X125.346 Y101.07 E.34934
G1 X124.811 Y101.07 E.0168
G1 X132.672 Y108.93 E.34934
G1 X132.137 Y108.93 E.0168
G1 X124.277 Y101.07 E.34934
G1 X123.742 Y101.07 E.0168
G1 X131.603 Y108.93 E.34934
G1 X131.068 Y108.93 E.0168
G1 X123.208 Y101.07 E.34934
G1 X122.673 Y101.07 E.0168
G1 X130.534 Y108.93 E.34934
G1 X129.999 Y108.93 E.0168
G1 X122.139 Y101.07 E.34934
G1 X121.604 Y101.07 E.0168
M73 Q8 S51
G1 X129.465 Y108.93 E.34934
G1 X128.93 Y108.93 E.0168
M73 P8 R51
G1 X121.07 Y101.07 E.34934
G1 X120.535 Y101.07 E.0168
G1 X128.396 Y108.93 E.34934
G1 X127.861 Y108.93 E.0168
G1 X120.001 Y101.07 E.34934
G1 X119.466 Y101.07 E.0168
G1 X127.327 Y108.93 E.34934
G1 X126.792 Y108.93 E.0168
G1 X118.932 Y101.07 E.34934
G1 X118.397 Y101.07 E.0168
G1 X126.258 Y108.93 E.34934
G1 X125.723 Y108.93 E.0168
G1 X117.863 Y101.07 E.34934
G1 X117.328 Y101.07 E.0168
G1 X125.189 Y108.93 E.34934
G1 X124.654 Y108.93 E.0168
G1 X116.794 Y101.07 E.34934
G1 X116.259 Y101.07 E.0168
G1 X124.12 Y108.93 E.34934
G1 X123.585 Y108.93 E.0168
G1 X115.725 Y101.07 E.34934
G1 X115.19 Y101.07 E.0168
G1 X123.051 Y108.93 E.34934
G1 X122.516 Y108.93 E.0168
G1 X114.656 Y101.07 E.34934
G1 X114.121 Y101.07 E.0168
G1 X121.982 Y108.93 E.34934
G1 X121.447 Y108.93 E.0168
G1 X113.587 Y101.07 E.34934
G1 X113.052 Y101.07 E.0168
G1 X120.913 Y108.93 E.34934
G1 X120.378 Y108.93 E.0168
G1 X112.518 Y101.07 E.34934
G1 X111.983 Y101.07 E.0168
G1 X119.844 Y108.93 E.34934
G1 X119.309 Y108.93 E.0168
G1 X111.449 Y101.07 E.34934
